X:4
T:All the Way to Galway (reel) 
B:CRE2.282 (Bealach ar fad go Gaillimh)
F:file ID: cre.2/004all_wg
L:1/8
M:C
R:reel
Q:180
K:G
"D modal"
d2fd cAAA|BGGG cAAA|defd cAA>c|BGAF D2D2:|
ABAG ABc>A|GAGF EFGE|A2BG ABcA|BGAF D2D2:|

%%%

